X: 87
T:Li farandoulaire
O:France
A:Provence
C:Anonyme
C:Paraulo de Charlou Riu
R:Farandole
Z:Transcrit et/ou corrig par Michel BELLON - 2005-07-24
Z:Pour toute observation mailto:galouvielle@free.fr
M:6/8
L:1/8
K:Bbmaj
%%continueall 1
fgf | e2c efe | d2B ded | c=Bc gf=e | f2z fgf | e2c efe | d2B ded | c=Bc cdc | _Bzz z2F |
